X:1
T:Frutto della nostra terra
T:Frutto della nostra terra
T:Musica di F. Buttazzo
T:Arm a 4 voci:  Lele Agosto 2018
C:Musica di F. buttazzo
Z:Arm a 4 voci  Lele
%%score [ ( 1 2 ) 3 4 5 ]
L:1/8
M:2/2
K:G
V:1 treble nm="Soprano" snm="S."
V:2 treble 
V:3 treble nm="Alto" snm="A."
V:4 treble-8 nm="Tenor" snm="T."
V:5 bass nm="Bass" snm="B."
V:1
"CSOL" G2 DG ABcA- |"CRe/sol" Ad- d6 |"Ddim" cdeg abc'a- |"CRe/Sol" a8 |:"CSol" DDDD G2 FE- | %5
w: Intro * * * * * *||||Frut- to del- la no- stra ter-|
w: |||||
"Ddim" EE- E6 |"CSol" .DDDD E2 DD- |"CRe" DD- D6 |"CMim" GGGG G2 BB- |"CSIm" BF- F2 E2 DE- | %10
w: * ra *|del la- vo- ro di͜~o- gni uo-|* mo *|pa- ne del- la nos- tra vi-|* ta * ci- bo del-|
w: |||vi- no del- le nos- tre vi-|* gne * sul- la men-|
"Ddim" EEEE E D2 D- |"CRe" D8 |"CSol" DDDD G2 FE- |"Ddim" EE- E6 |"CSol" DDDD E2 DD- | %15
w: * la quo- ti- dia- ni- tà||Tu che lo pren- de- vi͜~un gior-|* no *|lo spez- za- vi per i tuo-|
w: * sa dei fra- tel- li tuoi||Tu che lo pren- de- vi~un gior-|* no *|lo be- ve- vi con i tuo-|
"CRe" DD- D6 |"CMIm" GGGG G2 BB- |"CSIm" BF- F2 E2 DE- |"Ddim" EEEE E G2 A- |"CRe4" A8 | %20
w: * i *|og- gi vie- ni͜~in ques- to pa-|* ne * ci- bo ve-|* ro del- l'u- ma- ni- tà||
w: * i *|og- gi vie- ni~in ques- to vi-|* no * e ti do-|* ni per la vi- ta mia||
"CRe" z2 z2 FGAB- |"CSol" BB- B6 | z4 BBBd- |"CRe" dA- A6 | z4 ABAG- |"CMIm" GG- G6 | z4 GGGB- | %27
w: E sa- rò pa-|* ne *|e sa- rò vi-|* no *|nel- la mia vi-|* ta *|nel- le tue ma-|
w: |||||||
"CSIm" BF- F6 | z2 F2 G2 FE- |"Ddim" E2 E2 F2 GA- |"CRe" A2 z2 (3F2 G2 A2 |"CMIm" B2 AG- G2 FG- | %32
w: * ni *|Ti~ac- co- glie- rò|* den- tro di me|* fa- rò di|me~un'- of- fer- * ta vi-|
w: |||||
"Ddim" GG- G2"Ddim" (3E2 F2 G2 |"CLAm" G4 A4- |"CRe" A2 z2 (3G2 A2 G2 |1"CSol" G8 || %36
w: * va * un sa- cri-|fi- cio|* gra- di- to~a|Te|
w: ||||
"Ddim" c3 d-"CRe/Sol" d2"Ddim" c2 :|2"CMIm" G8- ||"CMim7" G z z2 z4 |"Ddim" z4"Ddim" (3E2 F2 G2 | %40
w: strum. * * *|Te||Un sa- cri-|
w: ||||
"CLAm" G4 A4- |"CRe" A2 z2 (3G2 A2 G2 |"CSOL" G8 | z8 | g2 de gabc' |"CRe" a4"Ddim" g4 | %46
w: fi- cio|* gra- di- to͜~a|Te||||
w: ||||||
"CSol" g8 |] %47
w: |
w: |
V:2
 x8 | x8 | x8 | x8 |: x8 | x8 | x8 | x8 | x8 | x8 | x8 | x8 | x8 | x8 | x8 | x8 | x8 | x8 | x8 | %19
w: |||||||||||||||||||
 x8 | x8 | z z d2 d2 de- | e d2 z z4 | z2 d2 d2 de- | e d2 z z4 | z2 e2 e2 ef- | fe B/A/B z4 | %27
w: ||E sa- rò pa-|* ne|E sa- rò vi-|* no|Nel- la mia vi-|* ta * * *|
 z2 d2 d2 de- | e d2 z z4 | x8 | x8 | x8 | x8 | x8 | x8 |1 x8 || E3 F- F2 D2 :|2 x8 || x8 | x8 | %40
w: Nel- le tue ma-|* ni||||||||||||
 x8 | x8 | g2 dg abc'a- |"CRe/Sol" ad'- d'2 c'bab | x8 | x8 | x8 |] %47
w: |||||||
V:3
 z8 | z8 | z8 | z8 |: z8 | z8 | z8 | z8 | z8 | z8 | z8 | z8 | z8 | z8 | z8 | z8 | z8 | z8 | z8 | %19
 z8 | z2 z2 FGAG- | GG- G6 | z4 GGGF- | FF- F6 | z4 FGFE- | EE- E6 | z4 EEED- | DD- D6 | %28
 z2 D2 D2 DC- | C2 C2 C2 CD- | D2 z2 (3D2 E2 F2 | E2 EE- E2 DC- | CC- C2 (3C2 C2 C2 | E4 E4 | %34
 F2 z2 (3F2 F2 F2 |1 D8 || z8 :|2 E8- || E z z2 z4 | z4 (3C2 C2 C2 | C4 C4 | F2 z2 (3F2 G2 F2 | %42
 D8 | z8 | z8 | z8 | z8 |] %47
V:4
 z8 | z8 | z8 | z8 |: z8 | z8 | z8 | z8 | z8 | z8 | z8 | z8 | BBBB d2 Bc- | cc- c6 | BBBB A2 GA- | %15
w: ||||||||||||Tu che lo pren- de- vi~un gior-|* no *|lo spez- za- vi per i tuo-|
w: ||||||||||||Tu che lo pren- de- vi͜~un gior-|* no *|lo be- ve- vi con i tuo-|
 AA- A6 | z8 | z8 | z8 | z8 | z2 z2 ABcd- | dd- d6 | z4 dedd- | dd- d6 | z4 ddde- | ee- e6 | %26
w: * i *|||||E sa- rò pa-|* ne *|e sa- rò vi-|* no *|nel- la mia vi-|* ta *|
w: * i *|||||||||||
 z4 eeed- | dB- B6 | z2 B2 B2 Bc- | c2 e2 e2 ed- | d2 z2 (3d2 d2 d2 | e2 eB- B2 Bc- | %32
w: nel- le tue ma-|* ni *|Ti͜~ac- co- glie- rò|* den- tro di me|* fa- rò di|me~un'- of- fer- * ta vi-|
w: ||||||
 cc- c2 (3e2 e2 e2 | c4 c4 | d2 z2 (3d2 d2 c2 |1 B8 || z8 :|2 B8- || B z z2 z4 | z4 (3G2 A2 B2 | %40
w: * va * un sa- cri-|fi- cio|* gra- di- to͜~a|Te||Te||Un sa- cri-|
w: ||||||||
 c4 A4 | d2 z2 (3d2 d2 c2 | B8 | z8 | z z z2 z4 | z8 | z8 |] %47
w: fi- cio|* gra- di- to͜~a|Te|||||
w: |||||||
V:5
 z8 | z8 | z8 | z8 |: z8 | z8 | z8 | z8 | z8 | z8 | z8 | z8 | z8 | z8 | z8 | z8 | %16
w: ||||||||||||||||
w: ||||||||||||||||
 E,E,E,E, E,2 D,D,- | D,D,- D,2 C,2 B,,C,- | C,C,C,B,, A,, C,2 D,- | D,8 | z2 z2 D,C,A,,G,,- | %21
w: og- gi vie- ni~in quest- to pa-|* ne * ci- bo ve-|* ro del- l'u- ma- ni- tà|||
w: og- gi vie- ni͜~in quest- to vi-|* no * e ti do-|* ni per la vi- ta mia|||
 G,,G,,- G,,6 | z4 G,,B,,C,D,- | D,D,- D,6 | z4 D,D,D,E,- | E,E,- E,6 | z4 E,F,E,B,,- | %27
w: ||||||
w: ||||||
 B,,B,,- B,,6 | z2 B,,2 B,,2 B,,C,- | C,2 A,,2 C,2 C,D,- | D,2 z2 (3D,2 C,2 D,2 | %31
w: ||||
w: ||||
 E,2 E,E,- E,2 D,C,- | C,C,- C,2 (3C,2 C,2 B,,2 | A,,4 A,,4 | D,2 z2 (3D,2 C,2 A,,2 |1 G,,8 || %36
w: |||||
w: |||||
 z8 :|2 E,8 || D,2 z2 z4 | z4 (3C,2 C,2 B,,2 | A,,4 C,4 | D,2 z2 (3D,2 C,2 A,,2 | G,,8 | z8 | z8 | %45
w: |||||||||
w: |||||||||
 z8 | z8 |] %47
w: ||
w: ||

